X: 1
T: Flat World Waltz
C: Andy Cutting
R: waltz
Z: 2011 John Chambers <jc:trillian.mit.edu>
M: 3/4
L: 1/8
K: Em
BAB |\
"Em"GB FB EB | "C"CD EF GE | "Am"c3 B AG | "B7"F3 B AB |
"Em"GB FB EB | "C"CE cB AG | "B7"FG BA FG | "Em"E4 :|
|: GF |\
"Em"EF GB ed | "Am"c4 AG | "D"FD FA dc | "G"Bc BA GF |
"C"EC EG cB | "Am"AB AG FG |1 "B7"F3 A GA | F4 :|2 "B7"F3 A GF | "Em"E4 |]
